X:18960
T:Xiraldilla (CT 056)
R:Xiraldilla
C:Tradicional
S:Música Tradicional Asturiana, (C) Tello & Tito. Asturies, 2001.
S:http://pagina.de/MusTradAst <telloytito@asturies.org>
N:Estribillo, transcrito en Navia.
N:Se aplica como baile en las xiraldillas después de una melodía propia para la rueda.
O:Navia
A:Asturies
D:Felpeyu: Tierra
Z:Cancioneru de Torner 056
M:2/4
L:1/8
Q:1/4=160
W:Por el aire van
W:los suspiros de mi amante;
W:por el aire van,
W:van por el aire.
K:C
|GA Bc|d2 dd|ed dc|B2 G2|
Bc de|ed dc|A2 d2|B2 B2|


